public/images/sponsors/Facebook.svg

<svg fill="none" height="86" viewBox="0 0 172 86" width="172" xmlns="http://www.w3.org/2000/svg" xmlns:xlink="http://www.w3.org/1999/xlink"><clipPath id="a"><path d="m0 34h172v18.9905h-172z"/></clipPath><g clip-path="url(#a)" fill="#61778c"><path d="m13.6859 34.63v2.3915c0 .1559-.1041.2599-.2603.2599h-10.28102v4.8869h8.48522c.1561 0 .2602.1039.2602.2598v2.3916c0 .1559-.1041.2598-.2602.2598h-8.48522v7.2262c0 .1561-.10399.26-.26027.26h-2.576817c-.156136 0-.2601297-.1039-.2601297-.26v-17.6757c0-.1559.1039937-.2599.2601297-.2599h13.118107c.1562 0 .2603.104.2603.2599z"/><path d="m29.2108 44.8715c-.9499-2.6254-2.004-5.2507-3.0843-7.6422h-.6116c-1.0802 2.3915-2.1473 5.0168-3.0975 7.6422zm5.453 7.6942h-2.8371c-.1561 0-.2603-.0781-.2992-.2341-.3776-1.4946-.8329-3.0672-1.3535-4.6528h-8.7065c-.5205 1.5856-.976 3.1582-1.3404 4.6528-.0389.156-.1432.2341-.2994.2341h-2.7328c-.1822 0-.2864-.1039-.2343-.286 1.6397-5.7964 4.1384-12.1911 6.6631-17.5717.1172-.2469.2604-.3379.5077-.3379h3.6958c.2472 0 .3905.091.5077.3379 2.5507 5.3677 5.0103 11.7753 6.6631 17.5717.0521.1821-.052.286-.2342.286z"/><path d="m39.3218 43.6239c0-5.6408 3.7219-9.5917 9.0318-9.5917h.3902c3.3317 0 5.9085 1.6895 7.2749 4.1328.0911.1561.065.286-.0911.3641l-2.2903 1.1306c-.1563.078-.3517.078-.4557-.1169-.963-1.6636-2.4075-2.5474-4.5418-2.5474h-.3905c-3.3445 0-5.6481 2.6514-5.6481 6.4986 0 3.86 2.2645 6.4463 5.6481 6.4463h.3905c2.1865 0 3.4616-.7409 4.4378-1.8716.1301-.143.2733-.1689.4295-.0909l2.3555 1.1437c.0911.0519.13.1169.13.1819s-.026.1171-.0779.1949c-1.4446 2.1056-4.0473 3.4053-7.2228 3.4053h-.3905c-5.4007 0-8.9796-3.7042-8.9796-9.2797z"/><path d="m76.7497 49.9143v2.3914c0 .1561-.1042.26-.2604.26h-13.6647c-.1562 0-.2601-.1039-.2601-.26v-17.6757c0-.1559.1039-.2599.2601-.2599h13.4305c.1563 0 .2603.104.2603.2599v2.3915c0 .1559-.104.2599-.2603.2599h-10.5934v4.7307h8.6152c.1562 0 .2604.1041.2604.2601v2.3654c0 .1559-.1042.2599-.2604.2599h-8.6152v4.7569h10.8276c.1562 0 .2604.104.2604.2599z"/><path d="m97.1032 47.3018c0-1.6895-1.1193-2.4564-3.5789-2.4564h-6.1297v4.8869h6.1297c2.4987 0 3.5789-.7278 3.5789-2.4305zm-4.4509-10.0984h-5.2577v4.8868h5.2577c2.3555 0 3.4357-.7669 3.4357-2.4434 0-1.6767-1.0802-2.4434-3.4357-2.4434zm7.6267 10.3715c0 3.1841-2.4471 4.9908-6.7679 4.9908h-8.9536c-.1561 0-.2601-.1039-.2601-.26v-17.6757c0-.1559.104-.2599.2601-.2599h8.1599c4.2035 0 6.4938 1.6636 6.4938 4.7048 0 2.0015-1.0149 3.3143-3.0712 3.925 2.8891.6108 4.139 2.3395 4.139 4.575z"/><path d="m115.492 49.9403c3.734 0 6.09-2.5604 6.09-6.4724 0-3.9122-2.356-6.4725-6.09-6.4725h-.391c-3.735 0-6.091 2.5603-6.091 6.4725 0 3.912 2.356 6.4724 6.091 6.4724zm-9.761-6.4724c0-5.4848 3.644-9.4357 9.37-9.4357h.391c5.725 0 9.369 3.9509 9.369 9.4357 0 5.4846-3.644 9.4357-9.369 9.4357h-.391c-5.726 0-9.37-3.9511-9.37-9.4357z"/><path d="m139.904 49.9403c3.736 0 6.091-2.5604 6.091-6.4724 0-3.9122-2.355-6.4725-6.091-6.4725h-.389c-3.736 0-6.091 2.5603-6.091 6.4725 0 3.912 2.355 6.4724 6.091 6.4724zm-9.76-6.4724c0-5.4848 3.644-9.4357 9.371-9.4357h.389c5.727 0 9.371 3.9509 9.371 9.4357 0 5.4846-3.644 9.4357-9.371 9.4357h-.389c-5.727 0-9.371-3.9511-9.371-9.4357z"/><path d="m171.723 52.5657h-3.358c-.22 0-.312-.0521-.455-.221-2.355-2.7683-5.14-5.5235-7.509-7.5512h-1.51v7.5122c0 .1561-.104.26-.26.26h-2.577c-.156 0-.26-.1039-.26-.26v-17.6757c0-.1559.104-.2599.26-.2599h2.577c.156 0 .26.104.26.2599v7.1744h1.536c2.538-2.2876 4.88-4.7569 6.794-7.2395.129-.1689.233-.1948.39-.1948h3.175c.156 0 .235.078.235.182 0 .0519-.027.1168-.091.1948-2.798 3.4442-5.571 6.2645-8.134 8.448 3.227 2.7292 6.286 5.7705 9.07 9.0458.144.1689.066.325-.143.325z"/></g></svg>

<svg width="172" height="86" viewBox="0 0 172 86" fill="none" xmlns="http://www.w3.org/2000/svg">
<g clip-path="url(#clip0)">
<path d="M13.6859 34.63V37.0215C13.6859 37.1774 13.5818 37.2814 13.4256 37.2814H3.14458V42.1683H11.6298C11.7859 42.1683 11.89 42.2722 11.89 42.4281V44.8197C11.89 44.9756 11.7859 45.0795 11.6298 45.0795H3.14458V52.3057C3.14458 52.4618 3.04059 52.5657 2.88431 52.5657H0.307493C0.151357 52.5657 0.0473633 52.4618 0.0473633 52.3057V34.63C0.0473633 34.4741 0.151357 34.3701 0.307493 34.3701H13.4256C13.5818 34.3701 13.6859 34.4741 13.6859 34.63Z" fill="#61778C"/>
<path d="M29.2108 44.8715C28.2609 42.2461 27.2068 39.6208 26.1265 37.2293H25.5149C24.4347 39.6208 23.3676 42.2461 22.4174 44.8715H29.2108ZM34.6638 52.5657H31.8267C31.6706 52.5657 31.5664 52.4876 31.5275 52.3316C31.1499 50.837 30.6946 49.2644 30.174 47.6788H21.4675C20.947 49.2644 20.4915 50.837 20.1271 52.3316C20.0882 52.4876 19.9839 52.5657 19.8277 52.5657H17.0949C16.9127 52.5657 16.8085 52.4618 16.8606 52.2797C18.5003 46.4833 20.999 40.0886 23.5237 34.708C23.6409 34.4611 23.7841 34.3701 24.0314 34.3701H27.7272C27.9744 34.3701 28.1177 34.4611 28.2349 34.708C30.7856 40.0757 33.2452 46.4833 34.898 52.2797C34.9501 52.4618 34.846 52.5657 34.6638 52.5657Z" fill="#61778C"/>
<path d="M39.3218 43.6239C39.3218 37.9831 43.0437 34.0322 48.3536 34.0322H48.7438C52.0755 34.0322 54.6523 35.7217 56.0187 38.165C56.1098 38.3211 56.0837 38.451 55.9276 38.5291L53.6373 39.6597C53.481 39.7377 53.2856 39.7377 53.1816 39.5428C52.2186 37.8792 50.7741 36.9954 48.6398 36.9954H48.2493C44.9048 36.9954 42.6012 39.6468 42.6012 43.494C42.6012 47.354 44.8657 49.9403 48.2493 49.9403H48.6398C50.8263 49.9403 52.1014 49.1994 53.0776 48.0687C53.2077 47.9257 53.3509 47.8998 53.5071 47.9778L55.8626 49.1215C55.9537 49.1734 55.9926 49.2384 55.9926 49.3034C55.9926 49.3684 55.9666 49.4205 55.9147 49.4983C54.4701 51.6039 51.8674 52.9036 48.6919 52.9036H48.3014C42.9007 52.9036 39.3218 49.1994 39.3218 43.6239Z" fill="#61778C"/>
<path d="M76.7497 49.9143V52.3057C76.7497 52.4618 76.6455 52.5657 76.4893 52.5657H62.8246C62.6684 52.5657 62.5645 52.4618 62.5645 52.3057V34.63C62.5645 34.4741 62.6684 34.3701 62.8246 34.3701H76.2551C76.4114 34.3701 76.5154 34.4741 76.5154 34.63V37.0215C76.5154 37.1774 76.4114 37.2814 76.2551 37.2814H65.6617V42.0121H74.2769C74.4331 42.0121 74.5373 42.1162 74.5373 42.2722V44.6376C74.5373 44.7935 74.4331 44.8975 74.2769 44.8975H65.6617V49.6544H76.4893C76.6455 49.6544 76.7497 49.7584 76.7497 49.9143Z" fill="#61778C"/>
<path d="M97.1032 47.3018C97.1032 45.6123 95.9839 44.8454 93.5243 44.8454H87.3946V49.7323H93.5243C96.023 49.7323 97.1032 49.0045 97.1032 47.3018ZM92.6523 37.2034H87.3946V42.0902H92.6523C95.0078 42.0902 96.088 41.3233 96.088 39.6468C96.088 37.9701 95.0078 37.2034 92.6523 37.2034ZM100.279 47.5749C100.279 50.759 97.8319 52.5657 93.5111 52.5657H84.5575C84.4014 52.5657 84.2974 52.4618 84.2974 52.3057V34.63C84.2974 34.4741 84.4014 34.3701 84.5575 34.3701H92.7174C96.9209 34.3701 99.2112 36.0337 99.2112 39.0749C99.2112 41.0764 98.1963 42.3892 96.14 42.9999C99.0291 43.6107 100.279 45.3394 100.279 47.5749Z" fill="#61778C"/>
<path d="M115.492 49.9403C119.226 49.9403 121.582 47.3799 121.582 43.4679C121.582 39.5557 119.226 36.9954 115.492 36.9954H115.101C111.366 36.9954 109.01 39.5557 109.01 43.4679C109.01 47.3799 111.366 49.9403 115.101 49.9403H115.492ZM105.731 43.4679C105.731 37.9831 109.375 34.0322 115.101 34.0322H115.492C121.217 34.0322 124.861 37.9831 124.861 43.4679C124.861 48.9525 121.217 52.9036 115.492 52.9036H115.101C109.375 52.9036 105.731 48.9525 105.731 43.4679Z" fill="#61778C"/>
<path d="M139.904 49.9403C143.64 49.9403 145.995 47.3799 145.995 43.4679C145.995 39.5557 143.64 36.9954 139.904 36.9954H139.515C135.779 36.9954 133.424 39.5557 133.424 43.4679C133.424 47.3799 135.779 49.9403 139.515 49.9403H139.904ZM130.144 43.4679C130.144 37.9831 133.788 34.0322 139.515 34.0322H139.904C145.631 34.0322 149.275 37.9831 149.275 43.4679C149.275 48.9525 145.631 52.9036 139.904 52.9036H139.515C133.788 52.9036 130.144 48.9525 130.144 43.4679Z" fill="#61778C"/>
<path d="M171.723 52.5657H168.365C168.145 52.5657 168.053 52.5136 167.91 52.3447C165.555 49.5764 162.77 46.8212 160.401 44.7935H158.891V52.3057C158.891 52.4618 158.787 52.5657 158.631 52.5657H156.054C155.898 52.5657 155.794 52.4618 155.794 52.3057V34.63C155.794 34.4741 155.898 34.3701 156.054 34.3701H158.631C158.787 34.3701 158.891 34.4741 158.891 34.63V41.8044H160.427C162.965 39.5168 165.307 37.0475 167.221 34.5649C167.35 34.396 167.454 34.3701 167.611 34.3701H170.786C170.942 34.3701 171.021 34.4481 171.021 34.5521C171.021 34.604 170.994 34.6689 170.93 34.7469C168.132 38.1911 165.359 41.0114 162.796 43.1949C166.023 45.9241 169.082 48.9654 171.866 52.2407C172.01 52.4096 171.932 52.5657 171.723 52.5657Z" fill="#61778C"/>
</g>
<defs>
<clipPath id="clip0">
<rect width="172" height="18.9905" fill="white" transform="translate(0 34)"/>
</clipPath>
</defs>
</svg>
